images/50422896.svg

<?xml version="1.0" encoding="UTF-8"?>
<svg xmlns="http://www.w3.org/2000/svg" xmlns:xlink="http://www.w3.org/1999/xlink" width="300pt" height="300pt" viewBox="0 0 300 300" version="1.1">
<defs>
<g>
<symbol overflow="visible" id="glyph0-0">
<path style="stroke:none;" d="M 0.453125 1.59375 L 0.453125 -6.34375 L 4.953125 -6.34375 L 4.953125 1.59375 Z M 0.953125 1.09375 L 4.453125 1.09375 L 4.453125 -5.84375 L 0.953125 -5.84375 Z M 0.953125 1.09375 "/>
</symbol>
<symbol overflow="visible" id="glyph0-1">
<path style="stroke:none;" d="M 4.8125 -6.34375 L 4.8125 -5.484375 C 4.476562 -5.640625 4.160156 -5.753906 3.859375 -5.828125 C 3.566406 -5.910156 3.28125 -5.953125 3 -5.953125 C 2.507812 -5.953125 2.132812 -5.859375 1.875 -5.671875 C 1.613281 -5.484375 1.484375 -5.21875 1.484375 -4.875 C 1.484375 -4.582031 1.570312 -4.363281 1.75 -4.21875 C 1.925781 -4.070312 2.253906 -3.953125 2.734375 -3.859375 L 3.28125 -3.75 C 3.9375 -3.625 4.421875 -3.398438 4.734375 -3.078125 C 5.054688 -2.765625 5.21875 -2.34375 5.21875 -1.8125 C 5.21875 -1.175781 5.003906 -0.691406 4.578125 -0.359375 C 4.148438 -0.0351562 3.523438 0.125 2.703125 0.125 C 2.390625 0.125 2.054688 0.0859375 1.703125 0.015625 C 1.359375 -0.046875 1 -0.148438 0.625 -0.296875 L 0.625 -1.203125 C 0.976562 -1.003906 1.328125 -0.851562 1.671875 -0.75 C 2.023438 -0.644531 2.367188 -0.59375 2.703125 -0.59375 C 3.203125 -0.59375 3.585938 -0.691406 3.859375 -0.890625 C 4.140625 -1.085938 4.28125 -1.375 4.28125 -1.75 C 4.28125 -2.070312 4.179688 -2.320312 3.984375 -2.5 C 3.785156 -2.675781 3.460938 -2.8125 3.015625 -2.90625 L 2.46875 -3.015625 C 1.8125 -3.148438 1.332031 -3.359375 1.03125 -3.640625 C 0.738281 -3.921875 0.59375 -4.3125 0.59375 -4.8125 C 0.59375 -5.382812 0.796875 -5.835938 1.203125 -6.171875 C 1.609375 -6.515625 2.171875 -6.6875 2.890625 -6.6875 C 3.203125 -6.6875 3.515625 -6.65625 3.828125 -6.59375 C 4.148438 -6.539062 4.476562 -6.457031 4.8125 -6.34375 Z M 4.8125 -6.34375 "/>
</symbol>
<symbol overflow="visible" id="glyph0-2">
<path style="stroke:none;" d="M 0.890625 -6.5625 L 2.078125 -6.5625 L 4.984375 -1.078125 L 4.984375 -6.5625 L 5.84375 -6.5625 L 5.84375 0 L 4.65625 0 L 1.75 -5.484375 L 1.75 0 L 0.890625 0 Z M 0.890625 -6.5625 "/>
</symbol>
<symbol overflow="visible" id="glyph0-3">
<path style="stroke:none;" d="M 0.890625 -6.5625 L 1.765625 -6.5625 L 1.765625 -3.875 L 5 -3.875 L 5 -6.5625 L 5.890625 -6.5625 L 5.890625 0 L 5 0 L 5 -3.125 L 1.765625 -3.125 L 1.765625 0 L 0.890625 0 Z M 0.890625 -6.5625 "/>
</symbol>
<symbol overflow="visible" id="glyph0-4">
<path style="stroke:none;" d="M 3.546875 -5.953125 C 2.898438 -5.953125 2.382812 -5.710938 2 -5.234375 C 1.625 -4.753906 1.4375 -4.101562 1.4375 -3.28125 C 1.4375 -2.445312 1.625 -1.789062 2 -1.3125 C 2.382812 -0.832031 2.898438 -0.59375 3.546875 -0.59375 C 4.191406 -0.59375 4.703125 -0.832031 5.078125 -1.3125 C 5.453125 -1.789062 5.640625 -2.445312 5.640625 -3.28125 C 5.640625 -4.101562 5.453125 -4.753906 5.078125 -5.234375 C 4.703125 -5.710938 4.191406 -5.953125 3.546875 -5.953125 Z M 3.546875 -6.6875 C 4.460938 -6.6875 5.195312 -6.375 5.75 -5.75 C 6.300781 -5.132812 6.578125 -4.3125 6.578125 -3.28125 C 6.578125 -2.238281 6.300781 -1.410156 5.75 -0.796875 C 5.195312 -0.179688 4.460938 0.125 3.546875 0.125 C 2.617188 0.125 1.878906 -0.179688 1.328125 -0.796875 C 0.773438 -1.410156 0.5 -2.238281 0.5 -3.28125 C 0.5 -4.3125 0.773438 -5.132812 1.328125 -5.75 C 1.878906 -6.375 2.617188 -6.6875 3.546875 -6.6875 Z M 3.546875 -6.6875 "/>
</symbol>
</g>
</defs>
<g id="surface27621">
<rect x="0" y="0" width="300" height="300" style="fill:rgb(100%,100%,100%);fill-opacity:1;stroke:none;"/>
<path style="fill:none;stroke-width:1.2;stroke-linecap:butt;stroke-linejoin:miter;stroke:rgb(80%,80%,0%);stroke-opacity:1;stroke-miterlimit:10;" d="M 42.75 166.152344 L 39 175.269531 "/>
<path style="fill:none;stroke-width:1.2;stroke-linecap:butt;stroke-linejoin:miter;stroke:rgb(0%,0%,0%);stroke-opacity:1;stroke-miterlimit:10;" d="M 39 175.269531 L 35.25 184.386719 "/>
<path style="fill:none;stroke-width:1.2;stroke-linecap:butt;stroke-linejoin:miter;stroke:rgb(0%,0%,0%);stroke-opacity:1;stroke-miterlimit:10;" d="M 62.410156 167.648438 L 52.578125 166.902344 "/>
<path style="fill:none;stroke-width:1.2;stroke-linecap:butt;stroke-linejoin:miter;stroke:rgb(80%,80%,0%);stroke-opacity:1;stroke-miterlimit:10;" d="M 52.578125 166.902344 L 42.75 166.152344 "/>
<path style=" stroke:none;fill-rule:nonzero;fill:rgb(100%,100%,100%);fill-opacity:1;" d="M 39.75 160.652344 L 45.75 160.652344 L 45.75 171.652344 L 39.75 171.652344 Z M 39.75 160.652344 "/>
<g style="fill:rgb(80%,80%,0%);fill-opacity:1;">
  <use xlink:href="#glyph0-1" x="39.75" y="169.31543"/>
</g>
<path style="fill:none;stroke-width:1.2;stroke-linecap:butt;stroke-linejoin:miter;stroke:rgb(0%,0%,0%);stroke-opacity:1;stroke-miterlimit:10;" d="M 35.25 184.386719 L 50.273438 197.152344 "/>
<path style="fill:none;stroke-width:1.2;stroke-linecap:butt;stroke-linejoin:miter;stroke:rgb(0%,0%,0%);stroke-opacity:1;stroke-miterlimit:10;" d="M 39.757812 182.125 L 51.773438 192.339844 "/>
<path style="fill:none;stroke-width:1.2;stroke-linecap:butt;stroke-linejoin:miter;stroke:rgb(0%,0%,0%);stroke-opacity:1;stroke-miterlimit:10;" d="M 50.273438 197.152344 L 58.667969 191.980469 "/>
<path style="fill:none;stroke-width:1.2;stroke-linecap:butt;stroke-linejoin:miter;stroke:rgb(0%,0%,100%);stroke-opacity:1;stroke-miterlimit:10;" d="M 58.667969 191.980469 L 67.058594 186.808594 "/>
<path style="fill:none;stroke-width:1.2;stroke-linecap:butt;stroke-linejoin:miter;stroke:rgb(0%,0%,100%);stroke-opacity:1;stroke-miterlimit:10;" d="M 67.058594 186.808594 L 64.734375 177.230469 "/>
<path style="fill:none;stroke-width:1.2;stroke-linecap:butt;stroke-linejoin:miter;stroke:rgb(0%,0%,0%);stroke-opacity:1;stroke-miterlimit:10;" d="M 64.734375 177.230469 L 62.410156 167.648438 "/>
<path style="fill:none;stroke-width:1.2;stroke-linecap:butt;stroke-linejoin:miter;stroke:rgb(0%,0%,100%);stroke-opacity:1;stroke-miterlimit:10;" d="M 62.085938 185.988281 L 60.226562 178.324219 "/>
<path style="fill:none;stroke-width:1.2;stroke-linecap:butt;stroke-linejoin:miter;stroke:rgb(0%,0%,0%);stroke-opacity:1;stroke-miterlimit:10;" d="M 60.226562 178.324219 L 58.367188 170.660156 "/>
<path style=" stroke:none;fill-rule:nonzero;fill:rgb(100%,100%,100%);fill-opacity:1;" d="M 64.058594 181.308594 L 71.058594 181.308594 L 71.058594 192.308594 L 64.058594 192.308594 Z M 64.058594 181.308594 "/>
<g style="fill:rgb(0%,0%,100%);fill-opacity:1;">
  <use xlink:href="#glyph0-2" x="64.058594" y="189.97168"/>
</g>
<path style="fill:none;stroke-width:1.2;stroke-linecap:butt;stroke-linejoin:miter;stroke:rgb(0%,0%,0%);stroke-opacity:1;stroke-miterlimit:10;" d="M 62.410156 167.648438 L 68.792969 160.136719 "/>
<path style="fill:none;stroke-width:1.2;stroke-linecap:butt;stroke-linejoin:miter;stroke:rgb(0%,0%,100%);stroke-opacity:1;stroke-miterlimit:10;" d="M 68.792969 160.136719 L 75.175781 152.625 "/>
<path style="fill:none;stroke-width:1.2;stroke-linecap:butt;stroke-linejoin:miter;stroke:rgb(0%,0%,100%);stroke-opacity:1;stroke-miterlimit:10;" d="M 75.175781 152.625 L 84.871094 154.398438 "/>
<path style="fill:none;stroke-width:1.2;stroke-linecap:butt;stroke-linejoin:miter;stroke:rgb(0%,0%,0%);stroke-opacity:1;stroke-miterlimit:10;" d="M 84.871094 154.398438 L 94.570312 156.171875 "/>
<path style=" stroke:none;fill-rule:nonzero;fill:rgb(100%,100%,100%);fill-opacity:1;" d="M 68.175781 147.125 L 82.175781 147.125 L 82.175781 158.125 L 68.175781 158.125 Z M 68.175781 147.125 "/>
<g style="fill:rgb(0%,0%,100%);fill-opacity:1;">
  <use xlink:href="#glyph0-2" x="68.175781" y="155.788086"/>
  <use xlink:href="#glyph0-3" x="75.15332" y="155.788086"/>
</g>
<path style="fill:none;stroke-width:1.2;stroke-linecap:butt;stroke-linejoin:miter;stroke:rgb(0%,0%,0%);stroke-opacity:1;stroke-miterlimit:10;" d="M 92.386719 156.949219 L 95.699219 166.234375 "/>
<path style="fill:none;stroke-width:1.2;stroke-linecap:butt;stroke-linejoin:miter;stroke:rgb(100%,0%,0%);stroke-opacity:1;stroke-miterlimit:10;" d="M 95.699219 166.234375 L 99.011719 175.519531 "/>
<path style="fill:none;stroke-width:1.2;stroke-linecap:butt;stroke-linejoin:miter;stroke:rgb(0%,0%,0%);stroke-opacity:1;stroke-miterlimit:10;" d="M 96.753906 155.390625 L 100.070312 164.675781 "/>
<path style="fill:none;stroke-width:1.2;stroke-linecap:butt;stroke-linejoin:miter;stroke:rgb(100%,0%,0%);stroke-opacity:1;stroke-miterlimit:10;" d="M 100.070312 164.675781 L 103.382812 173.960938 "/>
<path style="fill:none;stroke-width:1.2;stroke-linecap:butt;stroke-linejoin:miter;stroke:rgb(0%,0%,0%);stroke-opacity:1;stroke-miterlimit:10;" d="M 94.570312 156.171875 L 107.335938 141.148438 "/>
<path style=" stroke:none;fill-rule:nonzero;fill:rgb(100%,100%,100%);fill-opacity:1;" d="M 97.199219 169.238281 L 105.199219 169.238281 L 105.199219 180.238281 L 97.199219 180.238281 Z M 97.199219 169.238281 "/>
<g style="fill:rgb(100%,0%,0%);fill-opacity:1;">
  <use xlink:href="#glyph0-4" x="97.199219" y="177.901367"/>
</g>
<path style="fill:none;stroke-width:1.2;stroke-linecap:butt;stroke-linejoin:miter;stroke:rgb(0%,0%,0%);stroke-opacity:1;stroke-miterlimit:10;" d="M 107.335938 141.148438 L 126.730469 144.691406 "/>
<path style="fill:none;stroke-width:1.2;stroke-linecap:butt;stroke-linejoin:miter;stroke:rgb(0%,0%,0%);stroke-opacity:1;stroke-miterlimit:10;" d="M 110.109375 136.9375 L 125.625 139.773438 "/>
<path style="fill:none;stroke-width:1.2;stroke-linecap:butt;stroke-linejoin:miter;stroke:rgb(0%,0%,0%);stroke-opacity:1;stroke-miterlimit:10;" d="M 100.710938 122.578125 L 107.335938 141.148438 "/>
<path style="fill:none;stroke-width:1.2;stroke-linecap:butt;stroke-linejoin:miter;stroke:rgb(0%,0%,0%);stroke-opacity:1;stroke-miterlimit:10;" d="M 126.730469 144.691406 L 139.5 129.667969 "/>
<path style="fill:none;stroke-width:1.2;stroke-linecap:butt;stroke-linejoin:miter;stroke:rgb(0%,0%,0%);stroke-opacity:1;stroke-miterlimit:10;" d="M 139.5 129.667969 L 158.894531 133.214844 "/>
<path style="fill:none;stroke-width:1.2;stroke-linecap:butt;stroke-linejoin:miter;stroke:rgb(0%,0%,0%);stroke-opacity:1;stroke-miterlimit:10;" d="M 139.5 129.667969 L 132.871094 111.101562 "/>
<path style="fill:none;stroke-width:1.2;stroke-linecap:butt;stroke-linejoin:miter;stroke:rgb(0%,0%,0%);stroke-opacity:1;stroke-miterlimit:10;" d="M 134.46875 129.371094 L 129.164062 114.515625 "/>
<path style="fill:none;stroke-width:1.2;stroke-linecap:butt;stroke-linejoin:miter;stroke:rgb(0%,0%,0%);stroke-opacity:1;stroke-miterlimit:10;" d="M 158.894531 133.214844 L 165.519531 151.78125 "/>
<path style="fill:none;stroke-width:1.2;stroke-linecap:butt;stroke-linejoin:miter;stroke:rgb(0%,0%,0%);stroke-opacity:1;stroke-miterlimit:10;" d="M 163.925781 133.511719 L 169.226562 148.367188 "/>
<path style="fill:none;stroke-width:1.2;stroke-linecap:butt;stroke-linejoin:miter;stroke:rgb(0%,0%,0%);stroke-opacity:1;stroke-miterlimit:10;" d="M 171.660156 118.1875 L 158.894531 133.214844 "/>
<path style="fill:none;stroke-width:1.2;stroke-linecap:butt;stroke-linejoin:miter;stroke:rgb(0%,0%,0%);stroke-opacity:1;stroke-miterlimit:10;" d="M 165.519531 151.78125 L 184.914062 155.328125 "/>
<path style="fill:none;stroke-width:1.2;stroke-linecap:butt;stroke-linejoin:miter;stroke:rgb(0%,0%,0%);stroke-opacity:1;stroke-miterlimit:10;" d="M 184.914062 155.328125 L 197.683594 140.304688 "/>
<path style="fill:none;stroke-width:1.2;stroke-linecap:butt;stroke-linejoin:miter;stroke:rgb(0%,0%,0%);stroke-opacity:1;stroke-miterlimit:10;" d="M 182.65625 150.820312 L 192.871094 138.800781 "/>
<path style="fill:none;stroke-width:1.2;stroke-linecap:butt;stroke-linejoin:miter;stroke:rgb(0%,0%,0%);stroke-opacity:1;stroke-miterlimit:10;" d="M 197.683594 140.304688 L 191.054688 121.734375 "/>
<path style="fill:none;stroke-width:1.2;stroke-linecap:butt;stroke-linejoin:miter;stroke:rgb(0%,0%,0%);stroke-opacity:1;stroke-miterlimit:10;" d="M 197.683594 140.304688 L 217.078125 143.847656 "/>
<path style="fill:none;stroke-width:1.2;stroke-linecap:butt;stroke-linejoin:miter;stroke:rgb(0%,0%,0%);stroke-opacity:1;stroke-miterlimit:10;" d="M 191.054688 121.734375 L 171.660156 118.1875 "/>
<path style="fill:none;stroke-width:1.2;stroke-linecap:butt;stroke-linejoin:miter;stroke:rgb(0%,0%,0%);stroke-opacity:1;stroke-miterlimit:10;" d="M 188.28125 125.941406 L 172.765625 123.105469 "/>
<path style="fill:none;stroke-width:1.2;stroke-linecap:butt;stroke-linejoin:miter;stroke:rgb(0%,0%,0%);stroke-opacity:1;stroke-miterlimit:10;" d="M 218.84375 145.351562 L 225.226562 137.835938 "/>
<path style="fill:none;stroke-width:1.2;stroke-linecap:butt;stroke-linejoin:miter;stroke:rgb(100%,0%,0%);stroke-opacity:1;stroke-miterlimit:10;" d="M 225.226562 137.835938 L 231.613281 130.324219 "/>
<path style="fill:none;stroke-width:1.2;stroke-linecap:butt;stroke-linejoin:miter;stroke:rgb(0%,0%,0%);stroke-opacity:1;stroke-miterlimit:10;" d="M 215.308594 142.34375 L 221.691406 134.832031 "/>
<path style="fill:none;stroke-width:1.2;stroke-linecap:butt;stroke-linejoin:miter;stroke:rgb(100%,0%,0%);stroke-opacity:1;stroke-miterlimit:10;" d="M 221.691406 134.832031 L 228.078125 127.320312 "/>
<path style="fill:none;stroke-width:1.2;stroke-linecap:butt;stroke-linejoin:miter;stroke:rgb(0%,0%,0%);stroke-opacity:1;stroke-miterlimit:10;" d="M 217.078125 143.847656 L 220.390625 153.132812 "/>
<path style="fill:none;stroke-width:1.2;stroke-linecap:butt;stroke-linejoin:miter;stroke:rgb(0%,0%,100%);stroke-opacity:1;stroke-miterlimit:10;" d="M 220.390625 153.132812 L 223.703125 162.417969 "/>
<path style=" stroke:none;fill-rule:nonzero;fill:rgb(100%,100%,100%);fill-opacity:1;" d="M 225.84375 123.324219 L 233.84375 123.324219 L 233.84375 134.324219 L 225.84375 134.324219 Z M 225.84375 123.324219 "/>
<g style="fill:rgb(100%,0%,0%);fill-opacity:1;">
  <use xlink:href="#glyph0-4" x="225.84375" y="131.987305"/>
</g>
<path style="fill:none;stroke-width:1.2;stroke-linecap:butt;stroke-linejoin:miter;stroke:rgb(0%,0%,100%);stroke-opacity:1;stroke-miterlimit:10;" d="M 223.703125 162.417969 L 233.402344 164.1875 "/>
<path style="fill:none;stroke-width:1.2;stroke-linecap:butt;stroke-linejoin:miter;stroke:rgb(0%,0%,0%);stroke-opacity:1;stroke-miterlimit:10;" d="M 233.402344 164.1875 L 243.097656 165.960938 "/>
<path style=" stroke:none;fill-rule:nonzero;fill:rgb(100%,100%,100%);fill-opacity:1;" d="M 216.703125 156.917969 L 230.703125 156.917969 L 230.703125 167.917969 L 216.703125 167.917969 Z M 216.703125 156.917969 "/>
<g style="fill:rgb(0%,0%,100%);fill-opacity:1;">
  <use xlink:href="#glyph0-2" x="216.703125" y="165.581055"/>
  <use xlink:href="#glyph0-3" x="223.680664" y="165.581055"/>
</g>
<path style="fill:none;stroke-width:1.2;stroke-linecap:butt;stroke-linejoin:miter;stroke:rgb(0%,0%,0%);stroke-opacity:1;stroke-miterlimit:10;" d="M 243.097656 165.960938 L 249.726562 184.53125 "/>
<path style="fill:none;stroke-width:1.2;stroke-linecap:butt;stroke-linejoin:miter;stroke:rgb(0%,0%,0%);stroke-opacity:1;stroke-miterlimit:10;" d="M 249.726562 184.53125 L 264.75 197.296875 "/>
<path style="fill:none;stroke-width:1.2;stroke-linecap:butt;stroke-linejoin:miter;stroke:rgb(0%,0%,0%);stroke-opacity:1;stroke-miterlimit:10;" d="M 246.179688 203.925781 L 249.726562 184.53125 "/>
<path style="fill:none;stroke-width:1.2;stroke-linecap:butt;stroke-linejoin:miter;stroke:rgb(0%,0%,0%);stroke-opacity:1;stroke-miterlimit:10;" d="M 264.75 197.296875 L 246.179688 203.925781 "/>
<path style="fill:none;stroke-width:1.2;stroke-linecap:butt;stroke-linejoin:miter;stroke:rgb(0%,0%,0%);stroke-opacity:1;stroke-miterlimit:10;" d="M 132.871094 111.101562 L 113.476562 107.554688 "/>
<path style="fill:none;stroke-width:1.2;stroke-linecap:butt;stroke-linejoin:miter;stroke:rgb(0%,0%,0%);stroke-opacity:1;stroke-miterlimit:10;" d="M 132.871094 111.101562 L 145.640625 96.074219 "/>
<path style="fill:none;stroke-width:1.2;stroke-linecap:butt;stroke-linejoin:miter;stroke:rgb(0%,0%,0%);stroke-opacity:1;stroke-miterlimit:10;" d="M 113.476562 107.554688 L 100.710938 122.578125 "/>
<path style="fill:none;stroke-width:1.2;stroke-linecap:butt;stroke-linejoin:miter;stroke:rgb(0%,0%,0%);stroke-opacity:1;stroke-miterlimit:10;" d="M 115.734375 112.0625 L 105.523438 124.082031 "/>
</g>
</svg>

<svg xmlns="http://www.w3.org/2000/svg" xmlns:xlink="http://www.w3.org/1999/xlink" width="300pt" height="300pt" viewBox="0 0 300 300"><defs><symbol overflow="visible"><path d="M.453 1.594v-7.938h4.5v7.938zm.5-.5h3.5v-6.938h-3.5zm0 0"/></symbol><symbol overflow="visible" id="a"><path d="M4.813-6.344v.86c-.336-.157-.653-.27-.954-.344-.294-.082-.58-.125-.86-.125-.492 0-.867.094-1.125.28-.262.19-.39.454-.39.798 0 .293.085.512.265.656.176.15.504.267.984.36l.547.11c.658.125 1.142.352 1.454.672.32.312.485.734.485 1.265 0 .637-.216 1.122-.642 1.454-.43.325-1.055.485-1.875.485-.312 0-.648-.04-1-.11C1.36-.046 1-.147.625-.296v-.906c.352.2.703.35 1.047.453.35.105.695.156 1.03.156.5 0 .884-.097 1.157-.297.28-.196.42-.485.42-.86 0-.32-.1-.57-.296-.75-.2-.176-.523-.313-.968-.406l-.547-.11C1.81-3.148 1.33-3.36 1.03-3.64.74-3.923.595-4.313.595-4.813c0-.57.203-1.024.61-1.36.405-.344.968-.516 1.687-.516.313 0 .626.032.938.094.32.055.65.137.985.25zm0 0"/></symbol><symbol overflow="visible" id="b"><path d="M.89-6.563H2.08l2.906 5.485v-5.484h.86V0H4.656L1.75-5.484V0H.89zm0 0"/></symbol><symbol overflow="visible" id="c"><path d="M.89-6.563h.876v2.688H5v-2.688h.89V0H5v-3.125H1.766V0H.89zm0 0"/></symbol><symbol overflow="visible" id="d"><path d="M3.547-5.953c-.65 0-1.164.242-1.547.72-.375.48-.563 1.13-.563 1.952 0 .835.188 1.49.563 1.967.383.48.898.72 1.547.72.644 0 1.156-.24 1.53-.72.376-.476.564-1.132.564-1.968 0-.822-.187-1.474-.562-1.954-.375-.477-.887-.72-1.53-.72zm0-.734c.914 0 1.648.312 2.203.937.55.617.828 1.438.828 2.47 0 1.042-.277 1.87-.828 2.483-.555.617-1.29.922-2.203.922-.93 0-1.668-.305-2.22-.922C.774-1.41.5-2.237.5-3.28c0-1.033.273-1.853.828-2.47.55-.625 1.29-.938 2.22-.938zm0 0"/></symbol></defs><g><path fill="#fff" d="M0 0h300v300H0z"/><path d="M42.75 166.152L39 175.27" stroke-width="1.2" stroke="#cc0" stroke-miterlimit="10" fill="none"/><path d="M39 175.27l-3.75 9.117M62.41 167.648l-9.832-.746" stroke-width="1.2" stroke="#000" stroke-miterlimit="10" fill="none"/><path d="M52.578 166.902l-9.828-.75" stroke-width="1.2" stroke="#cc0" stroke-miterlimit="10" fill="none"/><path d="M39.75 160.652h6v11h-6zm0 0" fill="#fff"/><use xlink:href="#a" x="39.75" y="169.315" fill="#cc0"/><path d="M35.25 184.387l15.023 12.765M39.758 182.125l12.015 10.215M50.273 197.152l8.395-5.172" stroke-width="1.2" stroke="#000" stroke-miterlimit="10" fill="none"/><path d="M58.668 191.98l8.39-5.17M67.06 186.81l-2.326-9.58" stroke-width="1.2" stroke="#00f" stroke-miterlimit="10" fill="none"/><path d="M64.734 177.23l-2.324-9.582" stroke-width="1.2" stroke="#000" stroke-miterlimit="10" fill="none"/><path d="M62.086 185.988l-1.86-7.664" stroke-width="1.2" stroke="#00f" stroke-miterlimit="10" fill="none"/><path d="M60.227 178.324l-1.86-7.664" stroke-width="1.2" stroke="#000" stroke-miterlimit="10" fill="none"/><path d="M64.06 181.31h7v11h-7zm0 0" fill="#fff"/><use xlink:href="#b" x="64.059" y="189.972" fill="#00f"/><path d="M62.41 167.648l6.383-7.51" stroke-width="1.2" stroke="#000" stroke-miterlimit="10" fill="none"/><path d="M68.793 160.137l6.383-7.512M75.176 152.625l9.695 1.773" stroke-width="1.2" stroke="#00f" stroke-miterlimit="10" fill="none"/><path d="M84.87 154.398l9.7 1.774" stroke-width="1.2" stroke="#000" stroke-miterlimit="10" fill="none"/><path d="M68.176 147.125h14v11h-14zm0 0" fill="#fff"/><g fill="#00f"><use xlink:href="#b" x="68.176" y="155.788"/><use xlink:href="#c" x="75.153" y="155.788"/></g><path d="M92.387 156.95l3.312 9.284" stroke-width="1.2" stroke="#000" stroke-miterlimit="10" fill="none"/><path d="M95.7 166.234l3.312 9.286" stroke-width="1.2" stroke="#f00" stroke-miterlimit="10" fill="none"/><path d="M96.754 155.39l3.316 9.286" stroke-width="1.2" stroke="#000" stroke-miterlimit="10" fill="none"/><path d="M100.07 164.676l3.313 9.285" stroke-width="1.2" stroke="#f00" stroke-miterlimit="10" fill="none"/><path d="M94.57 156.172l12.766-15.024" stroke-width="1.2" stroke="#000" stroke-miterlimit="10" fill="none"/><path d="M97.2 169.238h8v11h-8zm0 0" fill="#fff"/><use xlink:href="#d" x="97.199" y="177.901" fill="#f00"/><path d="M107.336 141.148l19.394 3.543M110.11 136.938l15.515 2.835M100.71 122.578l6.626 18.57M126.73 144.69l12.77-15.022M139.5 129.668l19.395 3.547M139.5 129.668l-6.63-18.566M134.47 129.37l-5.306-14.854M158.895 133.215l6.625 18.566M163.926 133.512l5.3 14.855M171.66 118.188l-12.765 15.027M165.52 151.78l19.394 3.548M184.914 155.328l12.77-15.023M182.656 150.82l10.215-12.02M197.684 140.305l-6.63-18.57M197.684 140.305l19.394 3.543M191.055 121.734l-19.395-3.546M188.28 125.94l-15.514-2.835M218.844 145.352l6.383-7.516" stroke-width="1.2" stroke="#000" stroke-miterlimit="10" fill="none"/><path d="M225.227 137.836l6.386-7.512" stroke-width="1.2" stroke="#f00" stroke-miterlimit="10" fill="none"/><path d="M215.31 142.344l6.38-7.512" stroke-width="1.2" stroke="#000" stroke-miterlimit="10" fill="none"/><path d="M221.69 134.832l6.388-7.512" stroke-width="1.2" stroke="#f00" stroke-miterlimit="10" fill="none"/><path d="M217.078 143.848l3.313 9.285" stroke-width="1.2" stroke="#000" stroke-miterlimit="10" fill="none"/><path d="M220.39 153.133l3.313 9.285" stroke-width="1.2" stroke="#00f" stroke-miterlimit="10" fill="none"/><path d="M225.844 123.324h8v11h-8zm0 0" fill="#fff"/><use xlink:href="#d" x="225.844" y="131.987" fill="#f00"/><path d="M223.703 162.418l9.7 1.77" stroke-width="1.2" stroke="#00f" stroke-miterlimit="10" fill="none"/><path d="M233.402 164.188l9.696 1.773" stroke-width="1.2" stroke="#000" stroke-miterlimit="10" fill="none"/><path d="M216.703 156.918h14v11h-14zm0 0" fill="#fff"/><g fill="#00f"><use xlink:href="#b" x="216.703" y="165.581"/><use xlink:href="#c" x="223.681" y="165.581"/></g><path d="M243.098 165.96l6.63 18.57M249.727 184.53l15.023 12.767M246.18 203.926l3.547-19.395M264.75 197.297l-18.57 6.63M132.87 111.102l-19.393-3.547M132.87 111.102l12.77-15.028M113.477 107.555l-12.766 15.023M115.734 112.063l-10.21 12.02" stroke-width="1.2" stroke="#000" stroke-miterlimit="10" fill="none"/></g></svg>
